Origami/24x24/apps/nip2.svg

<svg width="24" height="24" version="1" xmlns="http://www.w3.org/2000/svg">
 <path d="m3 3.5c-0.554 0-1 0.446-1 1v12 4c0 0.554 0.446 1 1 1h18c0.554 0 1-0.446 1-1v-4-12c0-0.554-0.446-1-1-1h-18z" style="opacity:.2"/>
 <path d="m3 3c-0.554 0-1 0.446-1 1v12 4c0 0.554 0.446 1 1 1h18c0.554 0 1-0.446 1-1v-4-12c0-0.554-0.446-1-1-1h-18z" style="fill:#cccccc"/>
 <rect x="4" y="5" width="16" height="14" style="fill:#494949"/>
 <path d="m4 11s1.5-1.5 3.5-1.5 2.561716 2.035882 4.5 2c1.938284-0.03588 3.5-4 5-4s3 1 3 1v10.5h-16z" style="opacity:.1"/>
 <path d="m17 8c-1.5 0-3.061716 3.96412-5 4-1.938284 0.035882-2.5-2-4.5-2s-3.5 1.5-3.5 1.5v7.5h16v-10s-1.5-1-3-1z" style="fill:#4966ff"/>
 <path d="m4 13.5s0.5 2 1.5 2 2.5-2 4.5-2 4 2 5.5 2 4.5-2 4.5-2v5.5h-16z" style="opacity:.1"/>
 <path d="m4 14v5h16v-5s-3 2-4.5 2-3.5-2-5.5-2-3.5 2-4.5 2-1.5-2-1.5-2z" style="fill:#19c171"/>
 <path d="m17 8c-1.5 0-3.061716 3.96412-5 4s-2.5-2-4.5-2-3.5 1.5-3.5 1.5v0.5s1.5-1.5 3.5-1.5 2.561716 2.035882 4.5 2c1.938284-0.03588 3.5-4 5-4s3 1 3 1v-0.5s-1.5-1-3-1z" style="fill:#ffffff;opacity:.1"/>
 <path d="m4 14v0.5s0.5 2 1.5 2 2.5-2 4.5-2 4 2 5.5 2 4.5-2 4.5-2v-0.5s-3 2-4.5 2-3.5-2-5.5-2-3.5 2-4.5 2-1.5-2-1.5-2z" style="fill:#ffffff;opacity:.1"/>
 <path d="m3 3c-0.554 0-1 0.446-1 1v0.5c0-0.554 0.446-1 1-1h18c0.554 0 1 0.446 1 1v-0.5c0-0.554-0.446-1-1-1h-18z" style="fill:#ffffff;opacity:.1"/>
</svg>

<svg xmlns="http://www.w3.org/2000/svg" width="24" height="24" version="1">
 <path style="opacity:0.2" d="m 3,3.5 c -0.554,0 -1,0.446 -1,1 l 0,12 0,4 c 0,0.554 0.446,1 1,1 l 18,0 c 0.554,0 1,-0.446 1,-1 l 0,-4 0,-12 c 0,-0.554 -0.446,-1 -1,-1 l -18,0 z"/>
 <path style="fill:#cccccc" d="M 3,3 C 2.446,3 2,3.446 2,4 l 0,12 0,4 c 0,0.554 0.446,1 1,1 l 18,0 c 0.554,0 1,-0.446 1,-1 L 22,16 22,4 C 22,3.446 21.554,3 21,3 L 3,3 Z"/>
 <rect style="fill:#494949" width="16" height="14" x="4" y="5"/>
 <path style="opacity:0.1" d="m 4,11 c 0,0 1.5,-1.5 3.5,-1.5 2,0 2.561716,2.035882 4.5,2 1.938284,-0.03588 3.5,-4 5,-4 1.5,0 3,1 3,1 L 20,19 4,19 Z"/>
 <path style="fill:#4966ff" d="M 17 8 C 15.5 8 13.938284 11.96412 12 12 C 10.061716 12.035882 9.5 10 7.5 10 C 5.5 10 4 11.5 4 11.5 L 4 19 L 20 19 L 20 9 C 20 9 18.5 8 17 8 z"/>
 <path style="opacity:0.1" d="m 4,13.5 c 0,0 0.5,2 1.5,2 1,0 2.5,-2 4.5,-2 2,0 4,2 5.5,2 1.5,0 4.5,-2 4.5,-2 L 20,19 4,19 Z"/>
 <path style="fill:#19c171" d="M 4 14 L 4 19 L 20 19 L 20 14 C 20 14 17 16 15.5 16 C 14 16 12 14 10 14 C 8 14 6.5 16 5.5 16 C 4.5 16 4 14 4 14 z"/>
 <path style="opacity:0.1;fill:#ffffff" d="M 17,8 C 15.5,8 13.938284,11.96412 12,12 10.061716,12.03588 9.5,10 7.5,10 5.5,10 4,11.5 4,11.5 L 4,12 c 0,0 1.5,-1.5 3.5,-1.5 2,0 2.561716,2.035882 4.5,2 1.938284,-0.03588 3.5,-4 5,-4 1.5,0 3,1 3,1 L 20,9 C 20,9 18.5,8 17,8 Z"/>
 <path style="opacity:0.1;fill:#ffffff" d="m 4,14 0,0.5 c 0,0 0.5,2 1.5,2 1,0 2.5,-2 4.5,-2 2,0 4,2 5.5,2 1.5,0 4.5,-2 4.5,-2 L 20,14 c 0,0 -3,2 -4.5,2 C 14,16 12,14 10,14 8,14 6.5,16 5.5,16 4.5,16 4,14 4,14 Z"/>
 <path style="opacity:0.1;fill:#ffffff" d="M 3,3 C 2.446,3 2,3.446 2,4 l 0,0.5 c 0,-0.554 0.446,-1 1,-1 l 18,0 c 0.554,0 1,0.446 1,1 L 22,4 C 22,3.446 21.554,3 21,3 L 3,3 Z"/>
</svg>
